src/lib/assets/images/patterns/speaker-card-pattern-2.svg

<svg width="430" height="195" viewBox="0 0 430 195" fill="none" xmlns="http://www.w3.org/2000/svg">
<g clip-path="url(#clip0_207_69)">
<g opacity="0.68">
<path d="M306.926 370.461L222.742 364.722L91.2458 291.809L69.4233 297.226L-7.73762 265.559L2.07794 197.069L73.5003 144.807L98.0003 119.546L132.531 117.985L182.989 85.775L228.5 57.307L276.812 63.3614L288.5 31.807L325.5 24.307L354.031 13.807L374 28.307L404.762 28.307L432.619 13.807L439.5 58.9428L432.619 79.6422L473.375 97.7103L470.776 141.3L488.354 171.945L474.358 198.821L483.344 254.695L471.388 322.265L402.254 340.259L418.397 381.096L368.057 410.405L306.926 370.461Z" fill="url(#paint0_linear_207_69)"/>
<path d="M258.65 230.004L197.356 272.824M258.65 230.004L347.656 287.69M258.65 230.004L254.34 172.415M197.356 272.824L222.742 364.722M197.356 272.824L137.162 222.91M222.742 364.722L306.926 370.461M222.742 364.722L91.2458 291.809M306.926 370.461L347.656 287.69M306.926 370.461L368.057 410.405L418.397 381.096L402.254 340.259M347.656 287.69L395.24 236.543M347.656 287.69L402.254 340.259M254.34 172.415L364.313 168.031M254.34 172.415L161.67 163.193M254.34 172.415L231.848 119.546M364.313 168.031L395.24 236.543M364.313 168.031L400.348 159.3M364.313 168.031L354.031 137.025M395.24 236.543L483.344 254.695M402.254 340.259L471.388 322.265L483.344 254.695M483.344 254.695L474.358 198.821M161.67 163.193L137.162 222.91M161.67 163.193L132.531 117.985M137.162 222.91L100.479 194.191M400.348 159.3L474.358 198.821M400.348 159.3L354.031 137.025M400.348 159.3L423.937 140.065M474.358 198.821L488.354 171.945L470.776 141.3M354.031 137.025L261.472 95.1186M354.031 137.025L354.904 102.059M261.472 95.1186L231.848 119.546M261.472 95.1186L276.812 63.3614M231.848 119.546L182.989 85.775M100.479 194.191L91.2458 291.809M100.479 194.191L73.5003 144.807M91.2458 291.809L69.4233 297.226L-7.73762 265.559L2.07794 197.069L73.5003 144.807M132.531 117.985L182.989 85.775M132.531 117.985L98.0003 119.546L73.5003 144.807M182.989 85.775L228.5 57.307L276.812 63.3614M354.904 102.059L401.066 95.2584M354.904 102.059L341.76 78.7993M401.066 95.2584L423.937 140.065M401.066 95.2584L432.619 79.6422M401.066 95.2584L404.762 69.5336M423.937 140.065L470.776 141.3M470.776 141.3L473.375 97.7103L432.619 79.6422M432.619 79.6422L439.5 58.9428M341.76 78.7993L366.105 52.9884M341.76 78.7993L276.812 63.3614M341.76 78.7993L347.656 52.9884M276.812 63.3614L288.5 31.807L325.5 24.307M366.105 52.9884L404.762 69.5336M366.105 52.9884L347.656 52.9884M366.105 52.9884L374 28.307M404.762 69.5336L418.397 49.307M325.5 24.307L347.656 52.9884M325.5 24.307L354.031 13.807L374 28.307M374 28.307L404.762 28.307M418.397 49.307L439.5 58.9428M418.397 49.307L404.762 28.307M439.5 58.9428L432.619 13.807L404.762 28.307" stroke="white" stroke-width="2"/>
</g>
</g>
<defs>
<linearGradient id="paint0_linear_207_69" x1="275" y1="64.807" x2="310" y2="260.807" gradientUnits="userSpaceOnUse">
<stop stop-color="#FFD485"/>
<stop offset="1" stop-color="#F89F72"/>
</linearGradient>
<clipPath id="clip0_207_69">
<rect width="430" height="195" fill="white"/>
</clipPath>
</defs>
</svg>

<svg xmlns="http://www.w3.org/2000/svg" width="430" height="195" fill="none" viewBox="0 0 430 195">
  <g clip-path="url(#a)" opacity=".68">
    <path fill="url(#b)" d="m306.926 370.461-84.184-5.739-131.496-72.913-21.823 5.417-77.16-31.667 9.815-68.49L73.5 144.807 98 119.546l34.531-1.561 50.458-32.21L228.5 57.307l48.312 6.054L288.5 31.807l37-7.5 28.531-10.5L374 28.307h30.762l27.857-14.5 6.881 45.136-6.881 20.7 40.756 18.067-2.599 43.59 17.578 30.645-13.996 26.876 8.986 55.874-11.956 67.57-69.134 17.994 16.143 40.837-50.34 29.309z"/>
    <path stroke="#fff" stroke-width="2" d="m258.65 230.004-61.294 42.82m61.294-42.82 89.006 57.686m-89.006-57.686-4.31-57.589m-56.984 100.409 25.386 91.898m-25.386-91.898-60.194-49.914m85.58 141.812 84.184 5.739m-84.184-5.739L91.246 291.809m215.68 78.652 40.73-82.771m-40.73 82.771 61.131 39.944 50.34-29.309-16.143-40.837m-54.598-52.569 47.584-51.147m-47.584 51.147 54.598 52.569M254.34 172.415l109.973-4.384m-109.973 4.384-92.67-9.222m92.67 9.222-22.492-52.869m132.465 48.485 30.927 68.512m-30.927-68.512 36.035-8.731m-36.035 8.731-10.282-31.006m41.209 99.518 88.104 18.152m-81.09 85.564 69.134-17.994 11.956-67.57m0 0-8.986-55.874M161.67 163.193l-24.508 59.717m24.508-59.717-29.139-45.208m4.631 104.925-36.683-28.719M400.348 159.3l74.01 39.521m-74.01-39.521-46.317-22.275m46.317 22.275 23.589-19.235m50.421 58.756 13.996-26.876-17.578-30.645m-116.745-4.275-92.559-41.906m92.559 41.906.873-34.966m-93.432-6.94-29.624 24.427m29.624-24.427 15.34-31.758m-44.964 56.185-48.859-33.771m-82.51 108.416-9.233 97.618m9.233-97.618L73.5 144.807m17.746 147.002-21.823 5.417-77.16-31.667 9.815-68.49L73.5 144.807m59.031-26.822 50.458-32.21m-50.458 32.21-34.53 1.561-24.5 25.261m109.488-59.032L228.5 57.307l48.312 6.054m78.092 38.698 46.162-6.8m-46.162 6.8-13.144-23.26m59.306 16.46 22.871 44.806m-22.871-44.807 31.553-15.616m-31.553 15.616 3.696-25.724m19.175 70.531 46.839 1.235m0 0 2.599-43.59-40.756-18.068m0 0 6.881-20.7M341.76 78.8l24.345-25.81M341.76 78.8l-64.948-15.438M341.76 78.8l5.896-25.81m-70.844 10.37L288.5 31.807l37-7.5m40.605 28.681 38.657 16.546m-38.657-16.546h-18.449m18.449 0L374 28.307m30.762 41.227 13.635-20.227m-92.897-25 22.156 28.681M325.5 24.307l28.531-10.5L374 28.307m0 0h30.762m13.635 21 21.103 9.636m-21.103-9.636-13.635-21M439.5 58.943l-6.881-45.136-27.857 14.5"/>
  </g>
  <defs>
    <linearGradient id="b" x1="275" x2="310" y1="64.807" y2="260.807" gradientUnits="userSpaceOnUse">
      <stop stop-color="#ffd485"/>
      <stop offset="1" stop-color="#f89f72"/>
    </linearGradient>
    <clipPath id="a">
      <path fill="#fff" d="M0 0h430v195H0z"/>
    </clipPath>
  </defs>
</svg>
